src/containers/site/SiteRobotsScreen/asset/bitfinex.svg

<svg width="188" height="21" viewBox="0 0 188 21" fill="none" xmlns="http://www.w3.org/2000/svg">
<path fill-rule="evenodd" clip-rule="evenodd" d="M172.217 4.00955C179.894 -0.983421 187.661 0.0856864 187.735 0.116527C187.482 0.472066 178.198 13.4106 167.037 14.6717C166.819 11.6479 167.449 7.11001 172.217 4.00955ZM182.43 18.2646C174.082 24.0239 168.763 19.0614 167.795 18.0261C180.522 16.0749 187.533 0.571432 187.735 0.119158C188.315 3.22686 188.466 13.5179 182.43 18.2646Z" fill="#B5B5B5"/>
<path d="M187 0.119135C186.925 0.0876039 179.059 -1.00543 171.284 4.09928C166.455 7.26913 165.817 11.9086 166.037 15C177.341 13.7107 186.744 0.48263 187 0.119135Z" fill="#B5B5B5"/>
<path fill-rule="evenodd" clip-rule="evenodd" d="M14.9389 11.0883C18.7411 10.9672 20.1148 9.10256 20.1148 7.06838C20.1148 4.84046 18.3241 3 13.9577 3H0V20H14.3747C17.9561 20 20.6299 18.5228 20.6299 15.3504C20.6299 13.0983 19.1336 11.1852 14.9389 11.0883ZM3.90031 9.87749H12.6331C14.8653 9.87749 15.9446 8.88462 15.9446 7.8433C15.9446 6.70513 15.0125 5.88177 12.6331 5.88177H3.90031V9.87749ZM3.90031 17.1667H12.9274C15.2087 17.1667 16.3371 16.198 16.3371 14.8661C16.3371 13.4858 15.1842 12.4202 12.9274 12.4202H3.90031V17.1667ZM25.2366 20V3H29.1369V20H25.2366ZM44.9538 6.2208H53.5394V3H32.468V6.2208H41.0535V20H44.9538V6.2208ZM56.8705 20V3H75.6361V5.9302H60.7708V10.5798H69.9206V13.3647H60.7708V20H56.8705ZM78.7955 3V20H82.6958V3H78.7955ZM104.768 20L91.8406 7.14103V20H87.9648V3H92.9199L105.332 15.2536V3H109.183V20H104.768ZM114.452 3V20H133.537V17.1425H118.353V12.4687H127.453V9.82906H118.353V5.9302H133.537V3H114.452ZM154.505 3H159.657L150.458 11.3547L160 20H154.751L147.882 13.7279L140.989 20H135.838L145.355 11.3789L136.181 3H141.406L147.931 8.98148L154.505 3Z" fill="#B5B5B5"/>
</svg>

<svg width="188" height="21" fill="none" xmlns="http://www.w3.org/2000/svg"><path fill-rule="evenodd" clip-rule="evenodd" d="M172.217 4.01C179.894-.983 187.661.086 187.735.117c-.253.355-9.537 13.294-20.698 14.555-.218-3.024.412-7.562 5.18-10.662zm10.213 14.255c-8.348 5.759-13.667.796-14.635-.239C180.522 16.075 187.533.571 187.735.12c.58 3.108.731 13.399-5.305 18.146z" fill="#B5B5B5"/><path d="M187 .12c-.075-.032-7.941-1.125-15.716 3.98-4.829 3.17-5.467 7.809-5.247 10.9C177.341 13.71 186.744.483 187 .12z" fill="#B5B5B5"/><path fill-rule="evenodd" clip-rule="evenodd" d="M14.939 11.088c3.802-.12 5.176-1.985 5.176-4.02C20.115 4.84 18.325 3 13.958 3H0v17h14.375c3.581 0 6.255-1.477 6.255-4.65 0-2.252-1.496-4.165-5.691-4.262zM3.9 9.878h8.733c2.232 0 3.312-.993 3.312-2.035 0-1.138-.933-1.961-3.312-1.961H3.9v3.995zm0 7.289h9.027c2.282 0 3.41-.969 3.41-2.3 0-1.381-1.153-2.447-3.41-2.447H3.9v4.747zM25.237 20V3h3.9v17h-3.9zM44.954 6.22h8.585V3H32.468v3.22h8.585V20h3.9V6.22zM56.87 20V3h18.766v2.93H60.771v4.65h9.15v2.785h-9.15V20h-3.9zM78.796 3v17h3.9V3h-3.9zm25.972 17L91.841 7.141V20h-3.876V3h4.955l12.412 12.254V3h3.851v17h-4.415zm9.684-17v17h19.085v-2.858h-15.184V12.47h9.1v-2.64h-9.1V5.93h15.184V3h-19.085zm40.053 0h5.152l-9.199 8.355L160 20h-5.249l-6.869-6.272L140.989 20h-5.151l9.517-8.621L136.181 3h5.225l6.525 5.981L154.505 3z" fill="#B5B5B5"/></svg>
